images/pig-scheme/noga.svg

<svg width="79" height="107" viewBox="0 0 79 107" fill="none" xmlns="http://www.w3.org/2000/svg">
<path d="M70.54 106.42C70.22 106.43 69.9 106.44 69.56 106.44C64.7 106.44 58.5 106.89 51.85 105.75C50.34 105.49 48.8 105.15 47.25 104.71C43.01 103.48 38.67 101.46 34.44 98.1599C33.43 97.3599 32.42 96.4899 31.42 95.5399C30.63 94.7999 29.85 93.9999 29.07 93.1499C28.75 93.1499 27.09 93.1499 27.09 93.1499V98.96C27.09 98.96 24.94 98.96 20.63 98.96C19.19 98.96 16.55 97.0799 13.69 93.9099C12.86 92.9899 12 91.9499 11.15 90.8099C8.57996 87.4099 6.05997 83.13 4.21997 78.38C3.67997 77.01 3.21 75.5999 2.81 74.1499C1.91 70.9399 1.37 67.5799 1.37 64.1799V35.8999C1.37 34.8999 1.32 33.37 1.12 31.48C0.979995 30.03 0.740005 28.36 0.380005 26.58C0.260005 26.04 0.14 25.4899 0 24.9299C0.73 24.8999 1.44997 24.8499 2.15997 24.7999C4.41997 24.6299 6.57995 24.34 8.63995 23.96C28.24 20.34 38.91 8 43.92 0C43.98 2.72 44.06 5.30991 44.18 7.77991C44.26 9.62991 44.36 11.41 44.47 13.13C44.9 19.83 45.53 25.5799 46.3 30.6599C46.55 32.3399 46.82 33.95 47.1 35.5C48.18 41.44 49.45 46.4699 50.79 51.1699C51.21 52.6499 51.64 54.0999 52.06 55.5399C52.83 58.1199 53.61 60.6599 54.37 63.2699C54.37 63.2699 55.43 65.95 57.2 69.76C57.74 70.94 58.35 72.23 59.02 73.58C60.98 77.54 63.43 82.02 66.08 85.88C66.87 87.02 67.67 88.11 68.49 89.11C69.87 90.81 71.29 92.27 72.71 93.33C75.38 95.32 77.1 97.2699 77.93 99.0299C79.85 103.08 77.09 106.15 70.54 106.42Z" fill="#C21921"/>
<path fill-rule="evenodd" clip-rule="evenodd" d="M8.63983 23.96L1.11987 31.48C0.979873 30.03 0.739883 28.36 0.379883 26.58L2.15985 24.7999C4.41985 24.6299 6.57983 24.34 8.63983 23.96Z" fill="#A51B1E"/>
<path fill-rule="evenodd" clip-rule="evenodd" d="M44.4698 13.13L1.36987 56.23V50.59L44.1799 7.77991C44.2599 9.62991 44.3598 11.41 44.4698 13.13Z" fill="#A51B1E"/>
<path fill-rule="evenodd" clip-rule="evenodd" d="M47.0998 35.5L4.21979 78.38C3.67979 77.01 3.20981 75.5999 2.80981 74.1499L46.2998 30.6599C46.5498 32.3399 46.8198 33.95 47.0998 35.5Z" fill="#A51B1E"/>
<path fill-rule="evenodd" clip-rule="evenodd" d="M52.0599 55.5399L13.6899 93.9099C12.8599 92.9899 11.9999 91.9499 11.1499 90.8099L50.7899 51.1699C51.2099 52.6499 51.6399 54.0999 52.0599 55.5399Z" fill="#A51B1E"/>
<path fill-rule="evenodd" clip-rule="evenodd" d="M59.0199 73.58L34.4399 98.1599C33.4299 97.3599 32.4199 96.4899 31.4199 95.5399L57.1999 69.76C57.7399 70.94 58.3499 72.23 59.0199 73.58Z" fill="#A51B1E"/>
<path fill-rule="evenodd" clip-rule="evenodd" d="M68.49 89.11L51.85 105.75C50.34 105.49 48.8 105.15 47.25 104.71L66.08 85.88C66.87 87.02 67.67 88.11 68.49 89.11Z" fill="#A51B1E"/>
<path fill-rule="evenodd" clip-rule="evenodd" d="M70.5398 106.42L77.9298 99.0299C79.8498 103.08 77.0898 106.15 70.5398 106.42Z" fill="#A51B1E"/>
</svg>

<svg width="79" height="107" fill="none" xmlns="http://www.w3.org/2000/svg"><path d="M70.54 106.42c-.32.01-.64.02-.98.02-4.86 0-11.06.45-17.71-.69-1.51-.26-3.05-.6-4.6-1.04a37.604 37.604 0 01-12.81-6.55c-1.01-.8-2.02-1.67-3.02-2.62-.79-.74-1.57-1.54-2.35-2.39h-1.98v5.81h-6.46c-1.44 0-4.08-1.88-6.94-5.05-.83-.92-1.69-1.96-2.54-3.1-2.57-3.4-5.09-7.68-6.93-12.43-.54-1.37-1.01-2.78-1.41-4.23-.9-3.21-1.44-6.57-1.44-9.97V35.9c0-1-.05-2.53-.25-4.42a48.54 48.54 0 00-.74-4.9c-.12-.54-.24-1.09-.38-1.65.73-.03 1.45-.08 2.16-.13 2.26-.17 4.42-.46 6.48-.84C28.24 20.34 38.91 8 43.92 0c.06 2.72.14 5.31.26 7.78.08 1.85.18 3.63.29 5.35.43 6.7 1.06 12.45 1.83 17.53.25 1.68.52 3.29.8 4.84 1.08 5.94 2.35 10.97 3.69 15.67.42 1.48.85 2.93 1.27 4.37.77 2.58 1.55 5.12 2.31 7.73 0 0 1.06 2.68 2.83 6.49.54 1.18 1.15 2.47 1.82 3.82 1.96 3.96 4.41 8.44 7.06 12.3a50.24 50.24 0 002.41 3.23c1.38 1.7 2.8 3.16 4.22 4.22 2.67 1.99 4.39 3.94 5.22 5.7 1.92 4.05-.84 7.12-7.39 7.39z" fill="#C21921"/><path fill-rule="evenodd" clip-rule="evenodd" d="M8.64 23.96l-7.52 7.52a48.54 48.54 0 00-.74-4.9l1.78-1.78c2.26-.17 4.42-.46 6.48-.84zm35.83-10.83l-43.1 43.1v-5.64L44.18 7.78c.08 1.85.18 3.63.29 5.35zM47.1 35.5L4.22 78.38c-.54-1.37-1.01-2.78-1.41-4.23L46.3 30.66c.25 1.68.52 3.29.8 4.84zm4.96 20.04L13.69 93.91c-.83-.92-1.69-1.96-2.54-3.1l39.64-39.64c.42 1.48.85 2.93 1.27 4.37zm6.96 18.04L34.44 98.16c-1.01-.8-2.02-1.67-3.02-2.62L57.2 69.76c.54 1.18 1.15 2.47 1.82 3.82zm9.47 15.53l-16.64 16.64c-1.51-.26-3.05-.6-4.6-1.04l18.83-18.83a50.24 50.24 0 002.41 3.23zm2.05 17.31l7.39-7.39c1.92 4.05-.84 7.12-7.39 7.39z" fill="#A51B1E"/></svg>
